X:1
T:Bumpers Squire Jones
T:Bumpers Squire Jones
T:Carolan
C:Carolan
L:1/8
M:6/8
K:D
V:1 treble 
V:1
 A |{G} FDD D2 E | (F/G/A)F (G/A/B)A | BEE G2 A |{G} FDD d2 e | f(g/f/e/d/) edc | dBe cAc | %7
 dDD D2 :: a | (f/g/a)f d(f/g/a/f/) | b(g/a/b/g/) e(g/a/b/g/) | afd (e/f/g)e | TcAA A2 g | %13
 (f/g/a)f geg | a(f/g/a/f/) geg | a(f/g/a/f/) geg | fed TcBc | dDD D2 :| %18

